X:1
T:Herzlich Tut Mich Erfreuen, 76.76 D
T:Herzlich Tut Mich Erfreuen, 76.76 D
T:Johann Walther, 1552
T:Public Domain Courtesy of the Cyber Hymnal™
C:Johann Walther, 1552
Z:Public Domain
Z:Courtesy of the Cyber Hymnal™
%%score ( 1 2 ) ( 3 4 )
L:1/8
Q:1/4=115
M:none
K:D
V:1 treble 
V:2 treble 
V:3 bass 
V:4 bass 
V:1
 z2 D2 D2 D2 F2 D2 [EA]4 [DB]4 d4 c4 A2 (z2 z2) A2 [DF]4 | %1
 z2 D2 [DA]2 [GB]2 [Fc]2 [EA]2 d4 [Fc]4 [FB]2 [EA]4 F2 G2 [CE]2 D4 | %2
 z2 D2 [A,A]2 [B,A]2 [=CG]2 F2 z2 [DF]4 [B,D]4 [=CF]4 [DB]2 A4 z2 G2 [CE]4 | %3
 z2 [CA]2 A2 G2 [CF]2 [B,D]4 [DF]4 z2 A4 F2 G4 [CE]2 D8 x4 |] %4
V:2
 x2 D2 D2 D2 F2 D2 x6 F8 F4 B4 E4 x2 | x2 D2 x6 (D2 E2) x8 D4 D4 x6 | %2
 x2 D2 x4 D4 (G4 ^C2) x12 E2 D4 x4 | (B4 E2) D4 x8 B4 D2 (F2 E2) F2 (E2 D2) D8 x2 |] %4
V:3
 z2 D,2 z2 F,4 E,2 A,2 [D,F,]4 [B,,B,]4 [F,A,]4 [F,C]2 [G,B,]4 [A,C]2 [D,A,]4 x2 | %1
 z2 G,2 [F,A,]2 [E,G,]2 A,2 G,2 (F,2 G,2) [F,A,]4 [G,B,]2 [A,C]4 B,4 A,2 [D,F,]4 | %2
 z2 [B,,F,]2 [C,E,]2 [D,F,]2 [E,G,]2 [F,A,]2 B,2 G,2 [F,A,]4 G,4 [F,A,]4 [B,,B,]2 ([C,E,]2 [D,F,]2) [E,G,]2 [A,,A,]4 | %3
 E,6 [D,F,]2 [E,G,]2 [F,A,]2 G,4 [D,A,]4 [G,B,]4 [A,C]4 [D,D]2 [G,B,]4 A,2 [D,F,]8 |] %4
V:4
 x2 D,4 (F,4- B,,2) A,,2 B,,2 C,4 x20 | x2 G,2 x2 A,,4 B,,4 x8 B,2 G,2 A,2 x8 | %2
 x12 E,4 x2 G,4 x18 | G,,4 A,,2 x2 G,4 x14 A,2 x16 |] %4

